src/main/resources/icon/notificationsNew.svg

<svg xmlns="http://www.w3.org/2000/svg" width="13" height="13" fill="none" viewBox="0 0 13 13"><path fill="#6E6E6E" d="M1 10C1 8.34315 2.34315 7 4 7H9C10.6569 7 12 8.34315 12 10V10H1V10Z"/><path fill="#6E6E6E" d="M8.33335 11.0001C8.33335 12.1047 7.51254 13.0001 6.50002 13.0001C5.4875 13.0001 4.66669 12.1047 4.66669 11.0001C5.58335 11 7.41669 11.0001 8.33335 11.0001Z"/><path fill="#6E6E6E" fill-rule="evenodd" d="M10.7722 5.98957C10.6824 5.99648 10.5916 6 10.5 6C8.567 6 7 4.433 7 2.5C7 1.99271 7.10792 1.51063 7.30207 1.07546C7.04861 1.02589 6.78726 1 6.5206 1C4.50049 1 2.78779 2.48542 2.5021 4.48523L2 8H11.0833L10.7722 5.98957Z" clip-rule="evenodd"/><circle cx="10.5" cy="2.5" r="2.5" fill="#389FD6"/></svg>

<svg fill="none" viewBox="0 0 13 13"><path fill="#6E6E6E" d="M1 10a3 3 0 013-3h5a3 3 0 013 3H1zm7.333 1c0 1.105-.82 2-1.833 2s-1.833-.895-1.833-2h3.666z"/><path fill="#6E6E6E" fill-rule="evenodd" d="M10.772 5.99a3.5 3.5 0 01-3.47-4.914 4.06 4.06 0 00-4.8 3.41L2 8h9.083l-.31-2.01z" clip-rule="evenodd"/><circle cx="10.5" cy="2.5" r="2.5" fill="#389FD6"/></svg>
